Newaita-dark/actions/32/mail-meeting-request-reply.svg

<svg height="32" viewBox="0 0 32 32" width="32" xmlns="http://www.w3.org/2000/svg"><g fill="#e0e0e0"><path d="m5.292969 5.542969c-1.464844 0-2.648438 1.179687-2.648438 2.644531v15.878906c0 1.464844 1.183594 2.644532 2.648438 2.644532h11.90625v-2.644532h-10.585938c-.730469 0-1.320312-.589844-1.320312-1.324218v-13.230469c0-.734375.589843-1.324219 1.320312-1.324219h18.523438c.734375 0 1.324219.589844 1.324219 1.324219v5.292969h2.644531v-6.617188c0-1.464844-1.179688-2.644531-2.644531-2.644531zm0 0"/><path d="m4.84375 5.882812-1.75 1.964844 11.90625 10.585938c.5.445312 1.253906.445312 1.75 0l11.910156-10.585938-1.75-1.964844-11.035156 9.804688zm0 0"/><path d="m26.460938 26.050781v-7.941406c0-.363281.296874-.660156.660156-.660156h1.324218c.367188 0 .660157.296875.660157.660156v7.941406c0 .363281-.292969.660157-.660157.660157h-1.324218c-.363282 0-.660156-.296876-.660156-.660157zm0 0"/><path d="m19.84375 26.050781v-7.941406c0-.363281.296875-.660156.664062-.660156h1.324219c.363281 0 .660157.296875.660157.660156v7.941406c0 .363281-.296876.660157-.660157.660157h-1.324219c-.367187 0-.664062-.296876-.664062-.660157zm0 0"/><path d="m21.816406 17.5c-.253906.003906-.488281.148438-.601562.375-.117188.226562-.097656.496094.046875.703125l2.648437 3.886719c.125.1875.339844.300781.566406.300781.226563 0 .4375-.113281.566407-.300781l2.644531-3.886719c.144531-.199219.167969-.464844.0625-.6875-.109375-.226563-.328125-.375-.574219-.390625-.246093-.015625-.484375.101562-.621093.308594l-2.078126 3.054687-2.078124-3.054687c-.128907-.195313-.347657-.3125-.582032-.308594zm0 0"/></g></svg>

<svg xmlns="http://www.w3.org/2000/svg" xmlns:xlink="http://www.w3.org/1999/xlink" width="32px" height="32px" viewBox="0 0 32 32" version="1.1">
<g id="surface1">
     <defs>
  <style id="current-color-scheme" type="text/css">
   .ColorScheme-Text { color:#eeeeee; } .ColorScheme-Highlight { color:#424242; }
  </style>
 </defs>
<path style="fill:currentColor" class="ColorScheme-Text" d="M 5.292969 5.542969 C 3.828125 5.542969 2.644531 6.722656 2.644531 8.1875 L 2.644531 24.066406 C 2.644531 25.53125 3.828125 26.710938 5.292969 26.710938 L 17.199219 26.710938 L 17.199219 24.066406 L 6.613281 24.066406 C 5.882812 24.066406 5.292969 23.476562 5.292969 22.742188 L 5.292969 9.511719 C 5.292969 8.777344 5.882812 8.1875 6.613281 8.1875 L 25.136719 8.1875 C 25.871094 8.1875 26.460938 8.777344 26.460938 9.511719 L 26.460938 14.804688 L 29.105469 14.804688 L 29.105469 8.1875 C 29.105469 6.722656 27.925781 5.542969 26.460938 5.542969 Z M 5.292969 5.542969 "/>
     <defs>
  <style id="current-color-scheme" type="text/css">
   .ColorScheme-Text { color:#eeeeee; } .ColorScheme-Highlight { color:#424242; }
  </style>
 </defs>
<path style="fill:currentColor" class="ColorScheme-Text" d="M 4.84375 5.882812 L 3.09375 7.847656 L 15 18.433594 C 15.5 18.878906 16.253906 18.878906 16.75 18.433594 L 28.660156 7.847656 L 26.910156 5.882812 L 15.875 15.6875 Z M 4.84375 5.882812 "/>
     <defs>
  <style id="current-color-scheme" type="text/css">
   .ColorScheme-Text { color:#eeeeee; } .ColorScheme-Highlight { color:#424242; }
  </style>
 </defs>
<path style="fill:currentColor" class="ColorScheme-Text" d="M 26.460938 26.050781 L 26.460938 18.109375 C 26.460938 17.746094 26.757812 17.449219 27.121094 17.449219 L 28.445312 17.449219 C 28.8125 17.449219 29.105469 17.746094 29.105469 18.109375 L 29.105469 26.050781 C 29.105469 26.414062 28.8125 26.710938 28.445312 26.710938 L 27.121094 26.710938 C 26.757812 26.710938 26.460938 26.414062 26.460938 26.050781 Z M 26.460938 26.050781 "/>
     <defs>
  <style id="current-color-scheme" type="text/css">
   .ColorScheme-Text { color:#eeeeee; } .ColorScheme-Highlight { color:#424242; }
  </style>
 </defs>
<path style="fill:currentColor" class="ColorScheme-Text" d="M 19.84375 26.050781 L 19.84375 18.109375 C 19.84375 17.746094 20.140625 17.449219 20.507812 17.449219 L 21.832031 17.449219 C 22.195312 17.449219 22.492188 17.746094 22.492188 18.109375 L 22.492188 26.050781 C 22.492188 26.414062 22.195312 26.710938 21.832031 26.710938 L 20.507812 26.710938 C 20.140625 26.710938 19.84375 26.414062 19.84375 26.050781 Z M 19.84375 26.050781 "/>
     <defs>
  <style id="current-color-scheme" type="text/css">
   .ColorScheme-Text { color:#eeeeee; } .ColorScheme-Highlight { color:#424242; }
  </style>
 </defs>
<path style="fill:currentColor" class="ColorScheme-Text" d="M 21.816406 17.5 C 21.5625 17.503906 21.328125 17.648438 21.214844 17.875 C 21.097656 18.101562 21.117188 18.371094 21.261719 18.578125 L 23.910156 22.464844 C 24.035156 22.652344 24.25 22.765625 24.476562 22.765625 C 24.703125 22.765625 24.914062 22.652344 25.042969 22.464844 L 27.6875 18.578125 C 27.832031 18.378906 27.855469 18.113281 27.75 17.890625 C 27.640625 17.664062 27.421875 17.515625 27.175781 17.5 C 26.929688 17.484375 26.691406 17.601562 26.554688 17.808594 L 24.476562 20.863281 L 22.398438 17.808594 C 22.269531 17.613281 22.050781 17.496094 21.816406 17.5 Z M 21.816406 17.5 "/>
</g>
</svg>
